svgs/sharp-regular/stapler.svg

<svg xmlns="http://www.w3.org/2000/svg" viewBox="0 0 640 512"><!--! Font Awesome Pro 6.6.0 by @fontawesome - https://fontawesome.com License - https://fontawesome.com/license (Commercial License) Copyright 2024 Fonticons, Inc. --><path d="M448 384l0 48L32 432l0 48 416 0 48 0 48 0 48 0 48 0 0-48 0-96 0-48 0-48L255.6 47.8C234.8 37.4 211.9 32 188.6 32C131.9 32 80 64.1 54.6 114.8L22 180 0 224l47.7 11.9L64 240l0 120 0 24 24 0 360 0zm0-48l-336 0 0-84 336 84zm96 96l-48 0 0-96 0-37.5-36.4-9.1L69.7 191.9l27.8-55.6C114.8 101.8 150 80 188.6 80c15.8 0 31.4 3.7 45.6 10.8L592 269.7l0 18.3 0 48 0 96-48 0z"/></svg>

<svg xmlns="http://www.w3.org/2000/svg" viewBox="0 0 640 512"><!--! Font Awesome Pro 6.5.2 by @fontawesome - https://fontawesome.com License - https://fontawesome.com/license (Commercial License) Copyright 2024 Fonticons, Inc. --><path d="M448 384v48H32v48H448h48 48 48 48V432 336 288 240L255.6 47.8C234.8 37.4 211.9 32 188.6 32C131.9 32 80 64.1 54.6 114.8L22 180 0 224l47.7 11.9L64 240V360v24H88 448zm0-48H112V252l336 84zm96 96H496V336 298.5l-36.4-9.1L69.7 191.9l27.8-55.6C114.8 101.8 150 80 188.6 80c15.8 0 31.4 3.7 45.6 10.8L592 269.7V288v48 96H544z"/></svg>
